svgs/tusky.svg

<svg xmlns="http://www.w3.org/2000/svg" viewBox="0 0 192 192"><path d="M35.3 147.069c5.996-10.934 9.973-12.92 9.973-12.92m71.124.081c-3.397 4.327-2.888 14.478 1.244 21.554 2.233 3.822 4.399 9.801 5.92 14.49m-26.468-64.563s-7.944-7.594-3.034-12.618c5.892-6.028 11.342 3.347 12.722 5.865" fill="none" stroke="#000" stroke-width="8" stroke-linecap="round" stroke-linejoin="round"/><path d="M76.15 120.059s8.307 19.937.553 23.385c-7.754 3.448-10.184-7.884-10.184-7.884.091 2.823-1.422 8.048-5.486 7.759-4.981-.355-5.781-7.836-5.761-11.67-9.343 18.309-15.105-7.658-8.07-27.092 2.888-11.056 8.177-18.73 8.177-18.73s-6.299-8.55-2.792-11.497c3.507-2.947 4.441 1.48 4.441 1.48s.268-10.362 4.484-10.582c4.215-.22 3.17 4.975 3.17 4.975s2.522-4.082 5.462-2.975c2.94 1.108 1.11 5.688 1.11 5.688s14.357-6.627 28.937.482c14.58 7.108 11.808 24.165 18.874 21.456 7.067-2.709-1.195-11.559-3.855-14.472-2.659-2.913-6.753-12.177.54-19.153l3.459 6.265 5.54-1.135s-5.198 9.019 3.728 12.69c8.925 3.671 15.545 15.281 14.638 26.883-.402 5.142-4.977 10.361-10.242 14.955" fill="none" stroke="#000" stroke-width="8" stroke-linecap="round" stroke-linejoin="round"/><path d="M132.15 109.062s-4.841 12.157-19.769 11.687c-5.9-.186-10.22 3.35-9.493 8.431.791 5.529 6.756 6.329 13.216 5.03 15.242-3.065 18.804-13.967 16.046-25.148Zm-43.314 54.354s4.523 5.991 5.188 11.784m-18.002-2.217c-1.282-4.823-2.809-9.491-6.953-10.688-4.229-1.221-8.112.674-11.21 3.315m55.804-112.966-9.622-10.341 8.559-3.673Zm11.482.362.396-14.12 8.677 3.386-9.073 10.734Zm9.113 7.054 9.923-10.052 4.033 8.395Z" fill="none" stroke="#000" stroke-width="8" stroke-linecap="round" stroke-linejoin="round"/><path d="M96 16.5a79.529 79.529 0 0 0-56.215 23.285A79.529 79.529 0 0 0 16.5 96a79.529 79.529 0 0 0 23.285 56.215A79.529 79.529 0 0 0 96 175.5a79.529 79.529 0 0 0 56.215-23.285A79.529 79.529 0 0 0 175.5 96a79.529 79.529 0 0 0-23.285-56.215A79.529 79.529 0 0 0 96 16.5Z" fill="none" stroke="#000" stroke-width="8" stroke-linecap="round" stroke-linejoin="round"/></svg>

<svg
    xmlns="http://www.w3.org/2000/svg"
    viewBox="0 0 192 192"
    id="vector">
    <path
        id="path"
        d="M 35.3 147.069 C 41.296 136.135 45.273 134.149 45.273 134.149 M 116.397 134.23 C 113 138.557 113.509 148.708 117.641 155.784 C 119.874 159.606 122.04 165.585 123.561 170.274 M 97.093 105.711 C 97.093 105.711 89.149 98.117 94.059 93.093 C 99.951 87.065 105.401 96.44 106.781 98.958"
        fill="none"
        stroke="#000000"
        stroke-width="8"
        stroke-linecap="round"
        stroke-linejoin="round"/>
    <path
        id="path_1"
        d="M 76.15 120.059 C 76.15 120.059 84.457 139.996 76.703 143.444 C 68.949 146.892 66.519 135.56 66.519 135.56 C 66.61 138.383 65.097 143.608 61.033 143.319 C 56.052 142.964 55.252 135.483 55.272 131.649 C 45.929 149.958 40.167 123.991 47.202 104.557 C 50.09 93.501 55.379 85.827 55.379 85.827 C 55.379 85.827 49.08 77.277 52.587 74.33 C 56.094 71.383 57.028 75.81 57.028 75.81 C 57.028 75.81 57.296 65.448 61.512 65.228 C 65.727 65.008 64.682 70.203 64.682 70.203 C 64.682 70.203 67.204 66.121 70.144 67.228 C 73.084 68.336 71.254 72.916 71.254 72.916 C 71.254 72.916 85.611 66.289 100.191 73.398 C 114.771 80.506 111.999 97.563 119.065 94.854 C 126.132 92.145 117.87 83.295 115.21 80.382 C 112.551 77.469 108.457 68.205 115.75 61.229 L 119.209 67.494 L 124.749 66.359 C 124.749 66.359 119.551 75.378 128.477 79.049 C 137.402 82.72 144.022 94.33 143.115 105.932 C 142.713 111.074 138.138 116.293 132.873 120.887"
        fill="none"
        stroke="#000000"
        stroke-width="8"
        stroke-linecap="round"
        stroke-linejoin="round"/>
    <path
        id="path_2"
        d="M 132.15 109.062 C 132.15 109.062 127.309 121.219 112.381 120.749 C 106.481 120.563 102.161 124.099 102.888 129.18 C 103.679 134.709 109.644 135.509 116.104 134.21 C 131.346 131.145 134.908 120.243 132.15 109.062 Z M 88.836 163.416 C 88.836 163.416 93.359 169.407 94.024 175.2 M 76.022 172.983 C 74.74 168.16 73.213 163.492 69.069 162.295 C 64.84 161.074 60.957 162.969 57.859 165.61 M 113.663 52.644 L 104.041 42.303 L 112.6 38.63 Z M 125.145 53.006 L 125.541 38.886 L 134.218 42.272 L 125.145 53.006 Z M 134.258 60.06 L 144.181 50.008 L 148.214 58.403 Z"
        fill="none"
        stroke="#000000"
        stroke-width="8"
        stroke-linecap="round"
        stroke-linejoin="round"/>
    <path
        id="path_3"
        d="M 96 16.5 C 74.923 16.5 54.688 24.882 39.785 39.785 C 24.882 54.688 16.5 74.923 16.5 96 C 16.5 117.077 24.882 137.312 39.785 152.215 C 54.688 167.118 74.923 175.5 96 175.5 C 117.077 175.5 137.312 167.118 152.215 152.215 C 167.118 137.312 175.5 117.077 175.5 96 C 175.5 74.923 167.118 54.688 152.215 39.785 C 137.312 24.882 117.077 16.5 96 16.5 Z"
        fill="none"
        stroke="#000000"
        stroke-width="8"
        stroke-linecap="round"
        stroke-linejoin="round"/>
</svg>
